X:674
T:Knock, The
C:Nigel Gatherer
Z:Nigel Gatherer
M:4/4
L:1/8
K:Ador
cAeA fAeA  | G3  A BcdB  | cAeA fAeA  | GABd cA A2  :|
ABce a2 ef | g2 dg Bg G2 | ABce a2 ef | gedB BA A2 :|]
<end>
<start>
